resources/svg/calendar-plus.svg

<svg xmlns="http://www.w3.org/2000/svg" viewBox="0 0 15 15" fill="currentColor"><path fill-rule="evenodd" clip-rule="evenodd" d="M13.5 2H12V0H11V2H4V0H3V2H1.5C0.671573 2 0 2.67157 0 3.5V13.5C0 14.3284 0.671573 15 1.5 15H13.5C14.3284 15 15 14.3284 15 13.5V3.5C15 2.67157 14.3284 2 13.5 2ZM7 11V9H5V8H7V6H8V8H10V9H8V11H7Z" fill="black"/></svg>

<svg xmlns="http://www.w3.org/2000/svg" viewBox="0 0 15 15" fill="currentColor"><path fill-rule="evenodd" clip-rule="evenodd" d="M13.5 2H12V0h-1v2H4V0H3v2H1.5A1.5 1.5 0 000 3.5v10A1.5 1.5 0 001.5 15h12a1.5 1.5 0 001.5-1.5v-10A1.5 1.5 0 0013.5 2zM7 11V9H5V8h2V6h1v2h2v1H8v2H7z" fill="currentColor"/></svg>
